X:1885
T:Farewell to Erin
O:england
C:Trad
R:Reel
M:C|
K:EDor
L:1/8
E3 F B3 c|dBAF DEFD|E3 F B3 c|dBAd BEFD|
E3 F B3 c|dBAF D3d|BABd e2fe|dBAd BEE2:|
|:e3 f edBc|ddde dBA2|e3 f edBc|dBAd BEE2|
edBc d3B|ABAF DBAF|GEEF GABA|dBAd BEE2:|
|:BEEE BEEE|FDDD FEFA|BEEE B2BA|BdAd BEE2|
BEEE BEEE|FFFE D3d|BABd e2fe|dBAd BEE2:|
|:eBBB eBBB|BAFA BAFA|eBBB e2fe|dBAd BEE2|
edBc d3B|ABAF DBAF|GEEF GABA|1 dBAd BEE2:|2 dBAd BEFD||


